X:145
T: Whiteside's
S: Darley & McCall Collection (#51, gan ainm)
Z: B.Black
L: 1/8
M: 4/4
R: reel
K: G
Bd|ge (3efe dB B2|gefg a2 af|ge (3efe dBBA|Bgge d2 Bd|
ge (3efe dB B2|gefg a2 af|ge (3efe dBBA|Bgge d2 ||
BG|EA (3ABA GB (3BcB|dege d2 BG|EA (3ABA GB (3BcB|\
gedB ABAG|
EA (3ABA GB (3BcB|de (3gfe d2 BG|EA (3ABA GB (3BcB|\
(3gfe dB A2||
